startshape hemisphererule hemisphere { 14 * {x 10 } nerve1 [r -30 y 10.5]}rule nerve1 { nervebrush{} nerve1 {y 1.0 size 0.99 rotate 1.5 }}rule nerve1 0.03 {nerve2 {}}rule nerve2 { nervebrush{} nerve2 {y 1.0 size 0.99 rotate -1.5}}rule nerve2 0.06 { nervebrush {} nerve2 {y 1.0 size 0.99 rotate 1.5} nerve1 {y 1.0 size 0.6 rotate -60} nerve2 {y 1.0 size 0.5 rotate 60}}rule nerve2 0.005 { CIRCLE {s 10}}rule nervebrush { SQUARE { }}