startshape ARRAY

background { b 1 a -1 }

rule ARRAY {
  10*[skew -6.5 -1.5 rotate 2 s 1.3 1.5 y .1 x 0.25 ] BORDER {b 0.4 hue 350 sat 0. x -2 a -0.3}
}

rule BORDER {
   COLOURPICKER {}
}

rule COLOURPICKER { COLOURPICKER {a 0.1}}
rule COLOURPICKER { COLOURPICKER {a -0.1}}
rule COLOURPICKER { DASH {}}

rule DASH {
  SQUARE { s 0.499 1.}
  DASHTRANS{ a -0.05 y 0.1 }
}

/*rule DASHTRANS 2 {
  DASH {x 0.5}
}*/

rule DASHTRANS {
  DASH [ s 0.8 x 1.8 z 1]
}

/* rule DASHTRANS 0.05  {}*/